; generated by Slic3r 0.9.9 on 2016-03-15 at 12:53:37

; layer_height = 0.4
; perimeters = 3
; top_solid_layers = 3
; bottom_solid_layers = 3
; fill_density = 0.4
; perimeter_speed = 30
; infill_speed = 60
; travel_speed = 130
; nozzle_diameter = 0.5
; filament_diameter = 3
; extrusion_multiplier = 1
; perimeters extrusion width = 0.53mm
; infill extrusion width = 0.53mm
; solid infill extrusion width = 0.53mm
; top infill extrusion width = 0.53mm
; first layer extrusion width = 0.70mm

G21 ; set units to millimeters
M107
M104 S200 ; set temperature
G28 ; home all axes
G1 Z5 F5000 ; lift nozzle

M109 S200 ; wait for temperature to be reached
G90 ; use absolute coordinates
G92 E0
M82 ; use absolute distances for extrusion
G1 F1800.000 E-1.00000
G92 E0
G1 Z0.350 F7800.000
G1 X92.700 Y92.890
G1 F1800.000 E1.00000
G1 X93.290 Y92.340 F600.000 E1.02624
G1 X93.720 Y92.020 E1.04368
G1 X94.170 Y91.730 E1.06110
G1 X94.890 Y91.380 E1.08715
G1 X95.390 Y91.190 E1.10455
G1 X96.170 Y90.980 E1.13083
G1 X96.960 Y90.860 E1.15683
G1 X97.500 Y90.840 E1.17441
G1 X102.500 Y90.840 E1.33708
G1 X103.040 Y90.860 E1.35467
G1 X103.830 Y90.980 E1.38066
G1 X104.350 Y91.110 E1.39810
G1 X104.860 Y91.280 E1.41559
G1 X105.350 Y91.490 E1.43294
G1 X105.830 Y91.730 E1.45040
G1 X106.500 Y92.180 E1.47666
G1 X106.710 Y92.340 E1.48525
G1 X107.110 Y92.700 E1.50275
G1 X107.660 Y93.290 E1.52900
G1 X107.980 Y93.720 E1.54644
G1 X108.270 Y94.170 E1.56385
G1 X108.620 Y94.890 E1.58990
G1 X108.810 Y95.390 E1.60730
G1 X109.020 Y96.170 E1.63358
G1 X109.140 Y96.960 E1.65958
G1 X109.160 Y97.500 E1.67716
G1 X109.160 Y102.500 E1.83984
G1 X109.140 Y103.040 E1.85742
G1 X109.020 Y103.830 E1.88342
G1 X108.890 Y104.350 E1.90086
G1 X108.720 Y104.860 E1.91835
G1 X108.510 Y105.350 E1.93569
G1 X108.270 Y105.830 E1.95315
G1 X107.820 Y106.500 E1.97941
G1 X107.660 Y106.710 E1.98800
G1 X107.300 Y107.110 E2.00551
G1 X106.710 Y107.660 E2.03175
G1 X106.280 Y107.980 E2.04919
G1 X105.830 Y108.270 E2.06661
G1 X105.110 Y108.620 E2.09266
G1 X104.610 Y108.810 E2.11006
G1 X103.830 Y109.020 E2.13634
G1 X103.040 Y109.140 E2.16234
G1 X102.500 Y109.160 E2.17992
G1 X97.500 Y109.160 E2.34259
G1 X96.960 Y109.140 E2.36018
G1 X96.170 Y109.020 E2.38617
G1 X95.650 Y108.890 E2.40361
G1 X95.140 Y108.720 E2.42110
G1 X94.650 Y108.510 E2.43845
G1 X94.170 Y108.270 E2.45591
G1 X93.500 Y107.820 E2.48217
G1 X93.290 Y107.660 E2.49076
G1 X92.890 Y107.300 E2.50826
G1 X92.340 Y106.710 E2.53451
G1 X92.020 Y106.280 E2.55195
G1 X91.730 Y105.830 E2.56936
G1 X91.380 Y105.110 E2.59541
G1 X91.190 Y104.610 E2.61281
G1 X90.980 Y103.830 E2.63909
G1 X90.860 Y103.040 E2.66509
G1 X90.840 Y102.500 E2.68267
G1 X90.840 Y97.500 E2.84535
G1 X90.860 Y96.960 E2.86293
G1 X90.930 Y96.430 E2.88032
G1 X91.040 Y95.910 E2.89762
G1 X91.190 Y95.390 E2.91522
G1 X91.490 Y94.650 E2.94120
G1 X91.730 Y94.170 E2.95866
G1 X91.870 Y93.940 E2.96742
G1 X92.340 Y93.290 E2.99352
G1 X92.634 Y92.963 E3.00782
G1 F1800.000 E2.00782
G92 E0
G1 X99.143 Y99.143 F7800.000
G1 F1800.000 E1.00000
G1 X100.857 Y99.143 F600.000 E1.05578
G1 X100.857 Y100.857 E1.11157
G1 X99.143 Y100.857 E1.16735
G1 X99.143 Y99.241 E1.21993
G1 X98.486 Y98.486 F7800.000
G1 X101.514 Y98.486 F600.000 E1.31847
G1 X101.514 Y101.514 E1.41702
G1 X98.486 Y101.514 E1.51556
G1 X98.486 Y98.584 E1.61089
G1 X97.829 Y97.829 F7800.000
G1 X102.171 Y97.829 F600.000 E1.75219
G1 X102.171 Y102.171 E1.89349
G1 X97.829 Y102.171 E2.03479
G1 X97.829 Y97.927 E2.17288
G1 X98.398 Y98.157 F7800.000
G1 X99.996 Y100.004
G1 X99.996 Y100.004 F600.000 E2.17289
M106 S255
G1 F1800.000 E1.17289
G92 E0
G1 Z0.750 F7800.000
G1 X98.799 Y101.201
G1 F1800.000 E1.00000
G1 X98.799 Y98.799 F600.000 E1.07063
G1 X101.201 Y98.799 E1.14125
G1 X101.201 Y101.201 E1.21188
G1 X98.877 Y101.201 E1.28021
G1 X98.279 Y101.721 F7800.000
G1 X98.279 Y98.279 F600.000 E1.38140
G1 X101.721 Y98.279 E1.48259
G1 X101.721 Y101.721 E1.58377
G1 X98.357 Y101.721 E1.68267
G1 X97.760 Y102.240 F7800.000
G1 X97.760 Y97.760 F600.000 E1.81441
G1 X102.240 Y97.760 E1.94616
G1 X102.240 Y102.240 E2.07791
G1 X97.838 Y102.240 E2.20736
G1 X98.020 Y101.790 F7800.000
G1 X99.176 Y99.176
G1 X100.000 Y99.176 F600.000 E2.23455
G1 X99.176 Y100.000 E2.27300
G1 X99.176 Y100.824 E2.30018
G1 X100.824 Y99.176 E2.37706
G1 X100.824 Y100.000 E2.40424
G1 X100.000 Y100.824 E2.44269
G1 X100.824 Y100.824 E2.46988
G1 F1800.000 E1.46988
G92 E0
G1 Z1.150 F7800.000
G1 X101.201 Y101.201
G1 F1800.000 E1.00000
G1 X98.799 Y101.201 F600.000 E1.07063
G1 X98.799 Y98.799 E1.14125
G1 X101.201 Y98.799 E1.21188
G1 X101.201 Y101.123 E1.28021
G1 X101.721 Y101.721 F7800.000
G1 X98.279 Y101.721 F600.000 E1.38140
G1 X98.279 Y98.279 E1.48259
G1 X101.721 Y98.279 E1.58377
G1 X101.721 Y101.643 E1.68267
G1 X102.240 Y102.240 F7800.000
G1 X97.760 Y102.240 F600.000 E1.81441
G1 X97.760 Y97.760 E1.94616
G1 X102.240 Y97.760 E2.07791
G1 X102.240 Y102.162 E2.20736
G1 X101.790 Y101.980 F7800.000
G1 X99.176 Y100.824
G1 X99.176 Y100.000 F600.000 E2.23455
G1 X100.000 Y100.824 E2.27300
G1 X100.824 Y100.824 E2.30018
G1 X99.176 Y99.176 E2.37706
G1 X100.000 Y99.176 E2.40424
G1 X100.824 Y100.000 E2.44269
G1 X100.824 Y99.176 E2.46988
G1 F1800.000 E1.46988
G92 E0
G1 Z1.550 F7800.000
G1 X101.201 Y98.799
G1 F1800.000 E1.00000
G1 X101.201 Y101.201 F600.000 E1.07063
G1 X98.799 Y101.201 E1.14125
G1 X98.799 Y98.799 E1.21188
G1 X101.123 Y98.799 E1.28021
G1 X101.721 Y98.279 F7800.000
G1 X101.721 Y101.721 F600.000 E1.38140
G1 X98.279 Y101.721 E1.48259
G1 X98.279 Y98.279 E1.58377
G1 X101.643 Y98.279 E1.68267
G1 X102.240 Y97.760 F7800.000
G1 X102.240 Y102.240 F600.000 E1.81441
G1 X97.760 Y102.240 E1.94616
G1 X97.760 Y97.760 E2.07791
G1 X102.162 Y97.760 E2.20736
G1 X101.980 Y98.210 F7800.000
G1 X100.824 Y100.824
G1 X100.000 Y100.824 F600.000 E2.23455
G1 X100.824 Y100.000 E2.27300
G1 X100.824 Y99.176 E2.30018
G1 X99.176 Y100.824 E2.37706
G1 X99.176 Y100.000 E2.40423
G1 X100.000 Y99.176 E2.44268
G1 X99.176 Y99.176 E2.46987
G1 F1800.000 E1.46987
G92 E0
G1 Z1.950 F7800.000
G1 X98.799 Y98.799
G1 F1800.000 E1.00000
G1 X101.201 Y98.799 F600.000 E1.07063
G1 X101.201 Y101.201 E1.14125
G1 X98.799 Y101.201 E1.21188
G1 X98.799 Y98.877 E1.28021
G1 X98.279 Y98.279 F7800.000
G1 X101.721 Y98.279 F600.000 E1.38140
G1 X101.721 Y101.721 E1.48259
G1 X98.279 Y101.721 E1.58377
G1 X98.279 Y98.357 E1.68267
G1 X97.760 Y97.760 F7800.000
G1 X102.240 Y97.760 F600.000 E1.81441
G1 X102.240 Y102.240 E1.94616
G1 X97.760 Y102.240 E2.07791
G1 X97.760 Y97.838 E2.20736
G1 X98.210 Y98.020 F7800.000
G1 X100.824 Y99.176
G1 X100.824 Y100.000 F600.000 E2.23455
G1 X100.000 Y99.176 E2.27300
G1 X99.176 Y99.176 E2.30018
G1 X100.824 Y100.824 E2.37706
G1 X100.000 Y100.824 E2.40423
G1 X99.176 Y100.000 E2.44268
G1 X99.176 Y100.824 E2.46987
G1 F1800.000 E1.46987
G92 E0
G1 Z2.350 F7800.000
G1 X98.799 Y101.201
G1 F1800.000 E1.00000
G1 X98.799 Y98.799 F600.000 E1.07063
G1 X101.201 Y98.799 E1.14125
G1 X101.201 Y101.201 E1.21188
G1 X98.877 Y101.201 E1.28021
G1 X98.279 Y101.721 F7800.000
G1 X98.279 Y98.279 F600.000 E1.38140
G1 X101.721 Y98.279 E1.48259
G1 X101.721 Y101.721 E1.58377
G1 X98.357 Y101.721 E1.68267
G1 X97.760 Y102.240 F7800.000
G1 X97.760 Y97.760 F600.000 E1.81441
G1 X102.240 Y97.760 E1.94616
G1 X102.240 Y102.240 E2.07791
G1 X97.838 Y102.240 E2.20736
G1 X98.020 Y101.790 F7800.000
G1 X99.176 Y99.176
G1 X100.000 Y99.176 F600.000 E2.23455
G1 X99.176 Y100.000 E2.27300
G1 X99.176 Y100.824 E2.30018
G1 X100.824 Y99.176 E2.37706
G1 X100.824 Y100.000 E2.40423
G1 X100.000 Y100.824 E2.44268
G1 X100.824 Y100.824 E2.46987
G1 F1800.000 E1.46987
G92 E0
G1 Z2.750 F7800.000
G1 X101.201 Y101.201
G1 F1800.000 E1.00000
G1 X98.799 Y101.201 F600.000 E1.07063
G1 X98.799 Y98.799 E1.14125
G1 X101.201 Y98.799 E1.21188
G1 X101.201 Y101.123 E1.28021
G1 X101.721 Y101.721 F7800.000
G1 X98.279 Y101.721 F600.000 E1.38140
G1 X98.279 Y98.279 E1.48259
G1 X101.721 Y98.279 E1.58377
G1 X101.721 Y101.643 E1.68267
G1 X102.240 Y102.240 F7800.000
G1 X97.760 Y102.240 F600.000 E1.81441
G1 X97.760 Y97.760 E1.94616
G1 X102.240 Y97.760 E2.07791
G1 X102.240 Y102.162 E2.20736
G1 X101.790 Y101.980 F7800.000
G1 X99.176 Y100.824
G1 X99.176 Y100.000 F600.000 E2.23455
G1 X100.000 Y100.824 E2.27300
G1 X100.824 Y100.824 E2.30018
G1 X99.176 Y99.176 E2.37706
G1 X100.000 Y99.176 E2.40423
G1 X100.824 Y100.000 E2.44268
G1 X100.824 Y99.176 E2.46987
G1 F1800.000 E1.46987
G92 E0
G1 Z3.150 F7800.000
G1 X101.201 Y98.799
G1 F1800.000 E1.00000
G1 X101.201 Y101.201 F600.000 E1.07063
G1 X98.799 Y101.201 E1.14125
G1 X98.799 Y98.799 E1.21188
G1 X101.123 Y98.799 E1.28021
G1 X101.721 Y98.279 F7800.000
G1 X101.721 Y101.721 F600.000 E1.38140
G1 X98.279 Y101.721 E1.48259
G1 X98.279 Y98.279 E1.58377
G1 X101.643 Y98.279 E1.68267
G1 X102.240 Y97.760 F7800.000
G1 X102.240 Y102.240 F600.000 E1.81441
G1 X97.760 Y102.240 E1.94616
G1 X97.760 Y97.760 E2.07791
G1 X102.162 Y97.760 E2.20736
G1 X101.980 Y98.210 F7800.000
G1 X100.824 Y100.824
G1 X100.000 Y100.824 F600.000 E2.23455
G1 X100.824 Y100.000 E2.27300
G1 X100.824 Y99.176 E2.30018
G1 X99.176 Y100.824 E2.37706
G1 X99.176 Y100.000 E2.40423
G1 X100.000 Y99.176 E2.44268
G1 X99.176 Y99.176 E2.46987
G1 F1800.000 E1.46987
G92 E0
G1 Z3.550 F7800.000
G1 X98.799 Y98.799
G1 F1800.000 E1.00000
G1 X101.201 Y98.799 F600.000 E1.07063
G1 X101.201 Y101.201 E1.14125
G1 X98.799 Y101.201 E1.21188
G1 X98.799 Y98.877 E1.28021
G1 X98.279 Y98.279 F7800.000
G1 X101.721 Y98.279 F600.000 E1.38140
G1 X101.721 Y101.721 E1.48259
G1 X98.279 Y101.721 E1.58377
G1 X98.279 Y98.357 E1.68267
G1 X97.760 Y97.760 F7800.000
G1 X102.240 Y97.760 F600.000 E1.81441
G1 X102.240 Y102.240 E1.94616
G1 X97.760 Y102.240 E2.07791
G1 X97.760 Y97.838 E2.20736
G1 X98.210 Y98.020 F7800.000
G1 X100.824 Y99.176
G1 X100.824 Y100.000 F600.000 E2.23455
G1 X100.000 Y99.176 E2.27300
G1 X99.176 Y99.176 E2.30018
G1 X100.824 Y100.824 E2.37706
G1 X100.000 Y100.824 E2.40423
G1 X99.176 Y100.000 E2.44268
G1 X99.176 Y100.824 E2.46987
G1 F1800.000 E1.46987
G92 E0
G1 Z3.950 F7800.000
G1 X98.799 Y101.201
G1 F1800.000 E1.00000
G1 X98.799 Y98.799 F600.000 E1.07063
G1 X101.201 Y98.799 E1.14125
G1 X101.201 Y101.201 E1.21188
G1 X98.877 Y101.201 E1.28021
G1 X98.279 Y101.721 F7800.000
G1 X98.279 Y98.279 F600.000 E1.38140
G1 X101.721 Y98.279 E1.48259
G1 X101.721 Y101.721 E1.58377
G1 X98.357 Y101.721 E1.68267
G1 X97.760 Y102.240 F7800.000
G1 X97.760 Y97.760 F600.000 E1.81441
G1 X102.240 Y97.760 E1.94616
G1 X102.240 Y102.240 E2.07791
G1 X97.838 Y102.240 E2.20736
G1 X98.020 Y101.790 F7800.000
G1 X99.176 Y99.176
G1 X100.000 Y99.176 F600.000 E2.23455
G1 X99.176 Y100.000 E2.27300
G1 X99.176 Y100.824 E2.30018
G1 X100.824 Y99.176 E2.37706
G1 X100.824 Y100.000 E2.40423
G1 X100.000 Y100.824 E2.44268
G1 X100.824 Y100.824 E2.46987
G1 F1800.000 E1.46987
G92 E0
G1 Z4.350 F7800.000
G1 X101.201 Y101.201
G1 F1800.000 E1.00000
G1 X98.799 Y101.201 F600.000 E1.07063
G1 X98.799 Y98.799 E1.14125
G1 X101.201 Y98.799 E1.21188
G1 X101.201 Y101.123 E1.28021
G1 X101.721 Y101.721 F7800.000
G1 X98.279 Y101.721 F600.000 E1.38140
G1 X98.279 Y98.279 E1.48259
G1 X101.721 Y98.279 E1.58377
G1 X101.721 Y101.643 E1.68267
G1 X102.240 Y102.240 F7800.000
G1 X97.760 Y102.240 F600.000 E1.81441
G1 X97.760 Y97.760 E1.94616
G1 X102.240 Y97.760 E2.07791
G1 X102.240 Y102.162 E2.20736
G1 X101.790 Y101.980 F7800.000
G1 X99.176 Y100.824
G1 X99.176 Y100.000 F600.000 E2.23455
G1 X100.000 Y100.824 E2.27300
G1 X100.824 Y100.824 E2.30018
G1 X99.176 Y99.176 E2.37706
G1 X100.000 Y99.176 E2.40424
G1 X100.824 Y100.000 E2.44269
G1 X100.824 Y99.176 E2.46988
G1 F1800.000 E1.46988
G92 E0
G1 Z4.750 F7800.000
G1 X101.201 Y98.799
G1 F1800.000 E1.00000
G1 X101.201 Y101.201 F600.000 E1.07063
G1 X98.799 Y101.201 E1.14125
G1 X98.799 Y98.799 E1.21188
G1 X101.123 Y98.799 E1.28021
G1 X101.721 Y98.279 F7800.000
G1 X101.721 Y101.721 F600.000 E1.38140
G1 X98.279 Y101.721 E1.48259
G1 X98.279 Y98.279 E1.58377
G1 X101.643 Y98.279 E1.68267
G1 X102.240 Y97.760 F7800.000
G1 X102.240 Y102.240 F600.000 E1.81441
G1 X97.760 Y102.240 E1.94616
G1 X97.760 Y97.760 E2.07791
G1 X102.162 Y97.760 E2.20736
G1 X101.980 Y98.210 F7800.000
G1 X100.824 Y100.824
G1 X100.000 Y100.824 F600.000 E2.23455
G1 X100.824 Y100.000 E2.27300
G1 X100.824 Y99.176 E2.30018
G1 X99.176 Y100.824 E2.37706
G1 X99.176 Y100.000 E2.40424
G1 X100.000 Y99.176 E2.44269
G1 X99.176 Y99.176 E2.46988
G1 F1800.000 E1.46988
G92 E0
G1 Z5.150 F7800.000
G1 X98.799 Y98.799
G1 F1800.000 E1.00000
G1 X101.201 Y98.799 F600.000 E1.07063
G1 X101.201 Y101.201 E1.14125
G1 X98.799 Y101.201 E1.21188
G1 X98.799 Y98.877 E1.28021
G1 X98.279 Y98.279 F7800.000
G1 X101.721 Y98.279 F600.000 E1.38140
G1 X101.721 Y101.721 E1.48259
G1 X98.279 Y101.721 E1.58377
G1 X98.279 Y98.357 E1.68267
G1 X97.760 Y97.760 F7800.000
G1 X102.240 Y97.760 F600.000 E1.81441
G1 X102.240 Y102.240 E1.94616
G1 X97.760 Y102.240 E2.07791
G1 X97.760 Y97.838 E2.20736
G1 X98.210 Y98.020 F7800.000
G1 X100.824 Y99.176
G1 X100.824 Y100.000 F600.000 E2.23455
G1 X100.000 Y99.176 E2.27300
G1 X99.176 Y99.176 E2.30018
G1 X100.824 Y100.824 E2.37706
G1 X100.000 Y100.824 E2.40424
G1 X99.176 Y100.000 E2.44269
G1 X99.176 Y100.824 E2.46988
G1 F1800.000 E1.46988
G92 E0
M107
M104 S0 ; turn off temperature
G28 X0  ; home X axis
M84     ; disable motors

; filament used = 20.8mm (0.1cm3)
