; generated by Slic3r 0.9.9 on 2016-03-16 at 13:19:35

; layer_height = 0.4
; perimeters = 1
; top_solid_layers = 1
; bottom_solid_layers = 1
; fill_density = 0
; perimeter_speed = 30
; infill_speed = 60
; travel_speed = 130
; nozzle_diameter = 0.5
; filament_diameter = 3
; extrusion_multiplier = 1
; perimeters extrusion width = 0.53mm
; infill extrusion width = 0.53mm
; solid infill extrusion width = 0.53mm
; top infill extrusion width = 0.53mm
; first layer extrusion width = 0.70mm

G21 ; set units to millimeters
M107
M104 S200 ; set temperature
G28 ; home all axes
G1 Z5 F5000 ; lift nozzle

M109 S200 ; wait for temperature to be reached
G90 ; use absolute coordinates
G92 E0
M82 ; use absolute distances for extrusion
G1 F1800.000 E-1.00000
G92 E0
G1 Z0.350 F7800.000
G1 X97.829 Y97.829
G1 F1800.000 E1.00000
G1 X102.171 Y97.829 F600.000 E1.14130
G1 X102.171 Y102.171 E1.28260
G1 X97.829 Y102.171 E1.42389
G1 X97.829 Y97.927 E1.56198
G1 X98.305 Y101.695 F7800.000
G1 X98.305 Y100.726 F600.000 E1.59484
G1 X99.274 Y101.695 E1.64131
G1 X100.242 Y101.695 E1.67416
G1 X98.305 Y99.758 E1.76708
G1 X98.305 Y98.789 E1.79993
G1 X101.211 Y101.695 E1.93931
G1 X101.695 Y101.211 E1.96254
G1 X98.789 Y98.305 E2.10192
G1 X99.758 Y98.305 E2.13477
G1 X101.695 Y100.242 E2.22769
G1 X101.695 Y99.274 E2.26054
G1 X100.726 Y98.305 E2.30701
G1 X101.695 Y98.305 E2.33987
M106 S255
G1 F1800.000 E1.33987
G92 E0
G1 Z0.750 F7800.000
G1 X102.240 Y97.760
G1 F1800.000 E1.00000
G1 X102.240 Y102.240 F600.000 E1.13175
G1 X97.760 Y102.240 E1.26349
G1 X97.760 Y97.760 E1.39524
G1 X102.162 Y97.760 E1.52469
G1 F1800.000 E0.52469
G92 E0
G1 Z1.150 F7800.000
G1 X102.240 Y97.760
G1 F1800.000 E1.00000
G1 X102.240 Y102.240 F600.000 E1.13175
G1 X97.760 Y102.240 E1.26349
G1 X97.760 Y97.760 E1.39524
G1 X102.162 Y97.760 E1.52469
G1 F1800.000 E0.52469
G92 E0
G1 Z1.550 F7800.000
G1 X102.240 Y97.760
G1 F1800.000 E1.00000
G1 X102.240 Y102.240 F600.000 E1.13175
G1 X97.760 Y102.240 E1.26349
G1 X97.760 Y97.760 E1.39524
G1 X102.162 Y97.760 E1.52469
G1 F1800.000 E0.52469
G92 E0
G1 Z1.950 F7800.000
G1 X102.240 Y97.760
G1 F1800.000 E1.00000
G1 X102.240 Y102.240 F600.000 E1.13175
G1 X97.760 Y102.240 E1.26349
G1 X97.760 Y97.760 E1.39524
G1 X102.162 Y97.760 E1.52469
G1 F1800.000 E0.52469
G92 E0
G1 Z2.350 F7800.000
G1 X102.240 Y97.760
G1 F1800.000 E1.00000
G1 X102.240 Y102.240 F600.000 E1.13175
G1 X97.760 Y102.240 E1.26349
G1 X97.760 Y97.760 E1.39524
G1 X102.162 Y97.760 E1.52469
G1 F1800.000 E0.52469
G92 E0
G1 Z2.750 F7800.000
G1 X102.240 Y97.760
G1 F1800.000 E1.00000
G1 X102.240 Y102.240 F600.000 E1.13175
G1 X97.760 Y102.240 E1.26349
G1 X97.760 Y97.760 E1.39524
G1 X102.162 Y97.760 E1.52469
G1 F1800.000 E0.52469
G92 E0
G1 Z3.150 F7800.000
G1 X102.240 Y97.760
G1 F1800.000 E1.00000
G1 X102.240 Y102.240 F600.000 E1.13175
G1 X97.760 Y102.240 E1.26349
G1 X97.760 Y97.760 E1.39524
G1 X102.162 Y97.760 E1.52469
G1 F1800.000 E0.52469
G92 E0
G1 Z3.550 F7800.000
G1 X102.240 Y97.760
G1 F1800.000 E1.00000
G1 X102.240 Y102.240 F600.000 E1.13175
G1 X97.760 Y102.240 E1.26349
G1 X97.760 Y97.760 E1.39524
G1 X102.162 Y97.760 E1.52469
G1 F1800.000 E0.52469
G92 E0
G1 Z3.950 F7800.000
G1 X102.240 Y97.760
G1 F1800.000 E1.00000
G1 X102.240 Y102.240 F600.000 E1.13175
G1 X97.760 Y102.240 E1.26349
G1 X97.760 Y97.760 E1.39524
G1 X102.162 Y97.760 E1.52469
G1 F1800.000 E0.52469
G92 E0
G1 Z4.350 F7800.000
G1 X102.240 Y97.760
G1 F1800.000 E1.00000
G1 X102.240 Y102.240 F600.000 E1.13175
G1 X97.760 Y102.240 E1.26349
G1 X97.760 Y97.760 E1.39524
G1 X102.162 Y97.760 E1.52469
G1 F1800.000 E0.52469
G92 E0
G1 Z4.750 F7800.000
G1 X102.240 Y97.760
G1 F1800.000 E1.00000
G1 X102.240 Y102.240 F600.000 E1.13175
G1 X97.760 Y102.240 E1.26349
G1 X97.760 Y97.760 E1.39524
G1 X102.162 Y97.760 E1.52469
G1 F1800.000 E0.52469
G92 E0
G1 Z5.150 F7800.000
G1 X102.240 Y97.760
G1 F1800.000 E1.00000
G1 X102.240 Y102.240 F600.000 E1.13175
G1 X97.760 Y102.240 E1.26349
G1 X97.760 Y97.760 E1.39524
G1 X102.162 Y97.760 E1.52469
G1 X101.863 Y98.136 F7800.000
G1 X101.864 Y98.882 F600.000 E1.54693
G1 X101.118 Y98.136 E1.57838
G1 X100.373 Y98.136 E1.60061
G1 X101.864 Y99.627 E1.66350
G1 X101.864 Y100.373 E1.68573
G1 X99.627 Y98.136 E1.78006
G1 X98.882 Y98.136 E1.80230
G1 X101.864 Y101.118 E1.92807
G1 X101.863 Y101.863 E1.95030
G1 X98.137 Y98.137 E2.10750
G1 X98.136 Y98.882 E2.12973
G1 X101.118 Y101.864 E2.25550
G1 X100.373 Y101.864 E2.27773
G1 X98.136 Y99.627 E2.37206
G1 X98.136 Y100.373 E2.39429
G1 X99.627 Y101.864 E2.45718
G1 X98.882 Y101.864 E2.47942
G1 X98.136 Y101.118 E2.51087
G1 X98.137 Y101.864 E2.53310
G1 F1800.000 E1.53310
G92 E0
M107
M104 S0 ; turn off temperature
G28 X0  ; home X axis
M84     ; disable motors

; filament used = 8.6mm (0.1cm3)
